assets/logos/tumblr.svg

<svg width="80" height="80" viewBox="0 0 80 80" fill="none" xmlns="http://www.w3.org/2000/svg">
<path d="M40.0461 8C22.3308 8 8 22.3432 8 39.977C8 57.6109 22.3308 72 40.0461 72C57.6672 72 72 57.6109 72 39.977C72 22.2488 57.6672 8 40.0461 8Z" fill="#001935"/>
<path d="M42.5264 47.1918C42.5264 50.0773 43.982 51.0747 46.2985 51.0747H49.5868V58.4096H43.362C37.7577 58.4096 33.5803 55.524 33.5803 48.6208V37.5652H28.4873V31.5787C34.0922 30.1222 36.4367 25.2959 36.7064 21.116H42.5264V30.6078H49.3166V37.5652H42.5264V47.1918Z" fill="white"/>
</svg>

<svg xmlns="http://www.w3.org/2000/svg" width="80" height="80" fill="none" viewBox="0 0 80 80"><path fill="#001935" d="M40.046 8C22.331 8 8 22.343 8 39.977S22.33 72 40.046 72C57.667 72 72 57.61 72 39.977 72 22.249 57.667 8 40.046 8"/><path fill="#fff" d="M42.526 47.192c0 2.885 1.456 3.883 3.772 3.883h3.289v7.335h-6.225c-5.604 0-9.782-2.886-9.782-9.79V37.566h-5.093V31.58c5.605-1.457 7.95-6.283 8.22-10.463h5.82v9.492h6.79v6.957h-6.79z"/></svg>
